X:1
T:Title
%%score ( 1 2 ) { 3 | 4 }
L:1/8
Q:1/4=95
M:4/4
K:C
V:1 treble nm="Grand Piano, Soprano"
V:2 treble 
V:3 bass nm="Choir Pad, There’s a Wonderful Star"
V:4 bass 
V:1
 [CE][DF] [EG]2 [Ee][EB]dc | [FB][FA] [EG]2 [_E^F][EA] [=EG]2 | [EG][EG] [FG]2 [FB][FA] [DG]2 | %3
w: By~Adam~Geibel * * * * * *|||
 [B,D][B,F] [CE]6 | [CE][DF] [EG]2 [Ee][EB]dc | [FB][FA] [EG]2 [_E^F][EA] [=EG]2 | %6
w: |||
 [EG][EA] [DB]2 [DB][DB]dc | [^FB][Fc] d4 G2- |[M:6/8] G3 [CEG][CEG][CEG] | %9
w: |||
 [CEG] .[CEG]2 [CEA][CEA][CEA] | [CEA] .[CEA]2 [CEA][CEA][CEA] | [CEA] .[CEA]2 [DFB][DFB][DFB] | %12
w: |||
 [DFB] .[DFB]2 [DFB][DFB][DFB] | [DFB] .[DFB]2 [FGB][FGB][FGB] | [FGB] .[FGB]2 [DFB] .[DFB]2 | %15
w: |||
 [B,DG] .[B,DG]2 [CEG][CEG][CEG] | [CEG][CEG]G- G2 G | EGA- A3 | AA_B- B3 | A^GA- A3- | %20
w: |||||
 A2 [Cc]- [Cc]2 [Cc] | [B,B][Cc][Ee]- [Ee]3 | cA[B,FG] BA[B,G] | z2[K:bass] C- C3- | C6 |] %25
w: |||||
V:2
 z4 z2 F2 | x8 | x8 | x8 | z4 z2 F2 | x8 | z4 z2 ^F2 | z2 =F6- |[M:6/8] F3 z3 | x6 | x6 | x6 | x6 | %13
 x6 | x6 | x6 | x6 | x6 | x6 | x6 | x6 | x6 | x6 | FD[K:bass][C,E,] [C,E,][D,F,][C,E,]- | %24
 [C,E,]6 |] %25
V:3
 G,G, G,2 G,G, A,2 | A,B, C2 A,^F, G,2 | CC B,2 DC[K:bass] B,2 | G,G, G,6 | G,G, G,2 G,^G, A,2 | %5
 A,B, C2 A,^F, G,2 | G,G, G,2 G,G, A,2 | A,A, B,6- |[M:6/8] B,2 G,- G,2 G, | E,G,A,- A,3- | %10
 A,2 G,- G,2 G, | E,G,B,- B,3- | B,2 B,- B,2 B, | G,B,[K:treble]D- D3 | CB,C[K:bass] B,A,G, | %15
 D,F,E,- E,3- | E,2 C,[K:treble] CCC | CC[K:bass]C, CCC | CCC, _B,B,B, | _B,B,F,, A,A,A, | %20
 A,A,^F,, A,A,A, | A,A,G,,[K:treble] CCC | CA,[K:bass]G, B,A,G, | F,D,E,- E,3- | E,6 |] %25
V:4
 C,C, C,2 C,C, C,2 | C,C, C,2 C,C, C,2 | C,C, G,2 G,G, G,2 | G,,G,, C,6 | C,C, C,2 C,C, C,2 | %5
 C,C, C,2 C,C, C,2 | C,C, D,2 D,D, D,2 | D,D, G,6- |[M:6/8] G,2 C,- C,3- | C,2 C,- C,3- | %10
 C,2 C,- C,3- | C,2 D,- D,3- | D,2 G,- G,2 z | z6 | z2 G,- G,3/2 z/ G,,- | G,,2 C,- C,3- | %16
 C,2 C,, [E,G,][E,G,][E,G,] | [E,G,][E,G,]C,, [E,G,][E,G,][E,G,] | %18
 [E,G,][E,G,]C,, [C,E,][C,E,][C,E,] | [C,E,] .[C,E,]2 [C,F,][C,F,][C,F,] | %20
 [C,F,] .[C,F,]2 [_E,^F,][E,F,][E,F,] | [_E,^F,] .[E,F,]2 [=E,G,][E,G,][E,G,] | %22
 z2 [G,,D,] z2 [G,,D,] | z2 C,,- C,,3- | C,,6 |] %25

